src/pos-icons/table-refresh.svg

<svg height="24" viewBox="0 0 24 24" width="24" xmlns="http://www.w3.org/2000/svg"><path d="m18 14.5c1.11 0 2.11.45 2.83 1.17l1.17-1.17v4h-4l1.77-1.77c-.45-.45-1.08-.73-1.77-.73-1.38 0-2.5 1.12-2.5 2.5s1.12 2.5 2.5 2.5c.82 0 1.55-.39 2-1h1.71c-.59 1.47-2.03 2.5-3.71 2.5-2.21 0-4-1.79-4-4s1.79-4 4-4m-14-11.5h14c1.11 0 2 .9 2 2v7.17c-.5-.11-1-.17-1.5-.17-1.27 0-2.46.37-3.46 1h-3.04v4h.18c-.12.5-.18 1-.18 1.5v.5h-8c-1.1 0-2-.89-2-2v-12c0-1.1.9-2 2-2m0 4v4h6v-4zm8 0v4h6v-4zm-8 6v4h6v-4z"/></svg>

<?xml version="1.0" encoding="UTF-8"?><!DOCTYPE svg PUBLIC "-//W3C//DTD SVG 1.1//EN" "http://www.w3.org/Graphics/SVG/1.1/DTD/svg11.dtd"><svg xmlns="http://www.w3.org/2000/svg" xmlns:xlink="http://www.w3.org/1999/xlink" version="1.1" id="mdi-table-refresh" width="24" height="24" viewBox="0 0 24 24"><path d="M18 14.5C19.11 14.5 20.11 14.95 20.83 15.67L22 14.5V18.5H18L19.77 16.73C19.32 16.28 18.69 16 18 16C16.62 16 15.5 17.12 15.5 18.5C15.5 19.88 16.62 21 18 21C18.82 21 19.55 20.61 20 20H21.71C21.12 21.47 19.68 22.5 18 22.5C15.79 22.5 14 20.71 14 18.5C14 16.29 15.79 14.5 18 14.5M4 3H18C19.11 3 20 3.9 20 5V12.17C19.5 12.06 19 12 18.5 12C17.23 12 16.04 12.37 15.04 13H12V17H12.18C12.06 17.5 12 18 12 18.5L12 19H4C2.9 19 2 18.11 2 17V5C2 3.9 2.9 3 4 3M4 7V11H10V7H4M12 7V11H18V7H12M4 13V17H10V13H4Z" /></svg>
